images/shipping.svg

<svg xmlns="http://www.w3.org/2000/svg" width="776.66" height="776.66" viewBox="0 0 20549 20549" preserveAspectRatio="xMidYMid" fill-rule="evenodd" stroke-width="28.22" stroke-linejoin="round"><defs><clipPath id="A"><path d="M0 0h20549v20549H0z"/></clipPath></defs><g clip-path="url(#A)"><g fill="#e0e0e2"><path d="M9887 10504a186.5 186.5 0 0 1-153-81L7884 7720c-56-84-33-197 50-254s196-37 255 46l1851 2704c28 41 38 90 30 138-10 48-37 91-78 119-31 20-67 31-105 31zm0 0zm1271 0c-36 0-72-11-103-31-40-28-68-71-78-119-8-48 2-97 30-137l1852-2705c36-55 100-86 166-82 67 5 125 45 154 105 28 60 22 131-16 185l-1854 2705c-34 49-91 79-151 79zm0 0z"/><path d="M10222 10504c-77 0-146-48-173-122l-943-2641c-34-96 16-202 112-236s202 16 236 112l943 2642c34 96-16 202-112 236-20 7-41 9-63 9zm0 0zm614 0c-21 0-42-4-61-11-96-34-146-140-113-236l929-2640c34-96 140-146 236-112s147 140 113 236l-929 2641c-27 74-97 123-175 122zm0 0z"/><path d="M10522 10504c-101 0-183-82-184-184V7678c0-102 83-184 184-184 102 0 185 82 185 184v2642c0 49-19 96-54 130-34 35-81 54-131 54zm0 0z"/></g><path fill="#ccc" d="M12569 10688v2690c0 203-165 368-368 368H8844c-203 0-368-165-368-368v-2690c0-203 165-368 368-369h1214v1436l929-566v-870h1214c203 1 368 166 368 369zm0 0z"/><g fill="#f68e76"><path d="M10987 10319v870l-929 566v-1436h929zm0 0zm1140-2790c-135 128-210 306-208 492 1-186-74-363-206-492-130-133-307-208-493-208-383 5-693 316-698 700 2-186-74-364-208-492-129-133-306-208-492-208-384 5-694 316-698 700 2-186-74-364-208-492-129-133-307-208-492-208-186-1-364 74-492 208-131 123-208 422-208 422 0-1543 1252-2794 2795-2793 1543 0 2793 1252 2793 2794-15-56-34-111-56-165-35-90-86-196-153-256-129-133-306-208-491-209a662.2 662.2 0 0 0-485 207zm0 0z"/></g></g></svg>

<?xml version="1.0" encoding="UTF-8"?>
<!DOCTYPE svg PUBLIC "-//W3C//DTD SVG 1.1//EN" "http://www.w3.org/Graphics/SVG/1.1/DTD/svg11.dtd">
<svg version="1.2" width="205.49mm" height="205.49mm" viewBox="0 0 20549 20549" preserveAspectRatio="xMidYMid" fill-rule="evenodd" stroke-width="28.222" stroke-linejoin="round" xmlns="http://www.w3.org/2000/svg" xmlns:ooo="http://xml.openoffice.org/svg/export" xmlns:xlink="http://www.w3.org/1999/xlink" xmlns:presentation="http://sun.com/xmlns/staroffice/presentation" xmlns:smil="http://www.w3.org/2001/SMIL20/" xmlns:anim="urn:oasis:names:tc:opendocument:xmlns:animation:1.0" xml:space="preserve">
 <defs class="ClipPathGroup">
  <clipPath id="presentation_clip_path" clipPathUnits="userSpaceOnUse">
   <rect x="0" y="0" width="20549" height="20549"/>
  </clipPath>
  <clipPath id="presentation_clip_path_shrink" clipPathUnits="userSpaceOnUse">
   <rect x="20" y="20" width="20508" height="20508"/>
  </clipPath>
 </defs>
 <defs class="TextShapeIndex">
  <g ooo:slide="id1" ooo:id-list="id3 id4 id5 id6 id7 id8 id9 id10"/>
 </defs>
 <defs class="EmbeddedBulletChars">
  <g id="bullet-char-template-57356" transform="scale(0.00048828125,-0.00048828125)">
   <path d="M 580,1141 L 1163,571 580,0 -4,571 580,1141 Z"/>
  </g>
  <g id="bullet-char-template-57354" transform="scale(0.00048828125,-0.00048828125)">
   <path d="M 8,1128 L 1137,1128 1137,0 8,0 8,1128 Z"/>
  </g>
  <g id="bullet-char-template-10146" transform="scale(0.00048828125,-0.00048828125)">
   <path d="M 174,0 L 602,739 174,1481 1456,739 174,0 Z M 1358,739 L 309,1346 659,739 1358,739 Z"/>
  </g>
  <g id="bullet-char-template-10132" transform="scale(0.00048828125,-0.00048828125)">
   <path d="M 2015,739 L 1276,0 717,0 1260,543 174,543 174,936 1260,936 717,1481 1274,1481 2015,739 Z"/>
  </g>
  <g id="bullet-char-template-10007" transform="scale(0.00048828125,-0.00048828125)">
   <path d="M 0,-2 C -7,14 -16,27 -25,37 L 356,567 C 262,823 215,952 215,954 215,979 228,992 255,992 264,992 276,990 289,987 310,991 331,999 354,1012 L 381,999 492,748 772,1049 836,1024 860,1049 C 881,1039 901,1025 922,1006 886,937 835,863 770,784 769,783 710,716 594,584 L 774,223 C 774,196 753,168 711,139 L 727,119 C 717,90 699,76 672,76 641,76 570,178 457,381 L 164,-76 C 142,-110 111,-127 72,-127 30,-127 9,-110 8,-76 1,-67 -2,-52 -2,-32 -2,-23 -1,-13 0,-2 Z"/>
  </g>
  <g id="bullet-char-template-10004" transform="scale(0.00048828125,-0.00048828125)">
   <path d="M 285,-33 C 182,-33 111,30 74,156 52,228 41,333 41,471 41,549 55,616 82,672 116,743 169,778 240,778 293,778 328,747 346,684 L 369,508 C 377,444 397,411 428,410 L 1163,1116 C 1174,1127 1196,1133 1229,1133 1271,1133 1292,1118 1292,1087 L 1292,965 C 1292,929 1282,901 1262,881 L 442,47 C 390,-6 338,-33 285,-33 Z"/>
  </g>
  <g id="bullet-char-template-9679" transform="scale(0.00048828125,-0.00048828125)">
   <path d="M 813,0 C 632,0 489,54 383,161 276,268 223,411 223,592 223,773 276,916 383,1023 489,1130 632,1184 813,1184 992,1184 1136,1130 1245,1023 1353,916 1407,772 1407,592 1407,412 1353,268 1245,161 1136,54 992,0 813,0 Z"/>
  </g>
  <g id="bullet-char-template-8226" transform="scale(0.00048828125,-0.00048828125)">
   <path d="M 346,457 C 273,457 209,483 155,535 101,586 74,649 74,723 74,796 101,859 155,911 209,963 273,989 346,989 419,989 480,963 531,910 582,859 608,796 608,723 608,648 583,586 532,535 482,483 420,457 346,457 Z"/>
  </g>
  <g id="bullet-char-template-8211" transform="scale(0.00048828125,-0.00048828125)">
   <path d="M -4,459 L 1135,459 1135,606 -4,606 -4,459 Z"/>
  </g>
  <g id="bullet-char-template-61548" transform="scale(0.00048828125,-0.00048828125)">
   <path d="M 173,740 C 173,903 231,1043 346,1159 462,1274 601,1332 765,1332 928,1332 1067,1274 1183,1159 1299,1043 1357,903 1357,740 1357,577 1299,437 1183,322 1067,206 928,148 765,148 601,148 462,206 346,322 231,437 173,577 173,740 Z"/>
  </g>
 </defs>
 <defs class="TextEmbeddedBitmaps"/>
 <g>
  <g id="id2" class="Master_Slide">
   <g id="bg-id2" class="Background"/>
   <g id="bo-id2" class="BackgroundObjects"/>
  </g>
 </g>
 <g class="SlideGroup">
  <g>
   <g id="container-id1">
    <g id="id1" class="Slide" clip-path="url(#presentation_clip_path)">
     <g class="Page">
      <g class="com.sun.star.drawing.ClosedBezierShape">
       <g id="id3">
        <rect class="BoundingBox" stroke="none" fill="none" x="7853" y="7433" width="2221" height="3072"/>
        <path fill="rgb(224,224,226)" stroke="none" d="M 9887,10504 C 9826,10504 9768,10473 9734,10423 L 7884,7720 C 7828,7636 7851,7523 7934,7466 8017,7409 8130,7429 8189,7512 L 10040,10216 C 10068,10257 10078,10306 10070,10354 10060,10402 10033,10445 9992,10473 9961,10493 9925,10504 9887,10504 Z M 9887,10504 L 9887,10504 Z"/>
       </g>
      </g>
      <g class="com.sun.star.drawing.ClosedBezierShape">
       <g id="id4">
        <rect class="BoundingBox" stroke="none" fill="none" x="10974" y="7429" width="2224" height="3076"/>
        <path fill="rgb(224,224,226)" stroke="none" d="M 11158,10504 C 11122,10504 11086,10493 11055,10473 11015,10445 10987,10402 10977,10354 10969,10306 10979,10257 11007,10217 L 12859,7512 C 12895,7457 12959,7426 13025,7430 13092,7435 13150,7475 13179,7535 13207,7595 13201,7666 13163,7720 L 11309,10425 C 11275,10474 11218,10504 11158,10504 Z M 11158,10504 L 11158,10504 Z"/>
       </g>
      </g>
      <g class="com.sun.star.drawing.ClosedBezierShape">
       <g id="id5">
        <rect class="BoundingBox" stroke="none" fill="none" x="9095" y="7494" width="1315" height="3012"/>
        <path fill="rgb(224,224,226)" stroke="none" d="M 10222,10504 C 10145,10504 10076,10456 10049,10382 L 9106,7741 C 9072,7645 9122,7539 9218,7505 9314,7471 9420,7521 9454,7617 L 10397,10259 C 10431,10355 10381,10461 10285,10495 10265,10502 10244,10504 10222,10504 Z M 10222,10504 L 10222,10504 Z"/>
       </g>
      </g>
      <g class="com.sun.star.drawing.ClosedBezierShape">
       <g id="id6">
        <rect class="BoundingBox" stroke="none" fill="none" x="10651" y="7494" width="1301" height="3012"/>
        <path fill="rgb(224,224,226)" stroke="none" d="M 10836,10504 C 10815,10504 10794,10500 10775,10493 10679,10459 10629,10353 10662,10257 L 11591,7617 C 11625,7521 11731,7471 11827,7505 11923,7539 11974,7645 11940,7741 L 11011,10382 C 10984,10456 10914,10505 10836,10504 Z M 10836,10504 L 10836,10504 Z"/>
       </g>
      </g>
      <g class="com.sun.star.drawing.ClosedBezierShape">
       <g id="id7">
        <rect class="BoundingBox" stroke="none" fill="none" x="10338" y="7493" width="371" height="3012"/>
        <path fill="rgb(224,224,226)" stroke="none" d="M 10522,10504 C 10421,10504 10339,10422 10338,10320 L 10338,7678 C 10338,7576 10421,7494 10522,7494 10624,7494 10707,7576 10707,7678 L 10707,10320 C 10707,10369 10688,10416 10653,10450 10619,10485 10572,10504 10522,10504 Z M 10522,10504 L 10522,10504 Z"/>
       </g>
      </g>
      <g class="com.sun.star.drawing.ClosedBezierShape">
       <g id="id8">
        <rect class="BoundingBox" stroke="none" fill="none" x="8475" y="10319" width="4096" height="3428"/>
        <path fill="rgb(204,204,204)" stroke="none" d="M 12569,10688 L 12569,13378 C 12569,13581 12404,13746 12201,13746 L 8844,13746 C 8641,13746 8476,13581 8476,13378 L 8476,10688 C 8476,10485 8641,10320 8844,10319 L 10058,10319 10058,11755 10987,11189 10987,10319 12201,10319 C 12404,10320 12569,10485 12569,10688 Z M 12569,10688 L 12569,10688 Z"/>
       </g>
      </g>
      <g class="com.sun.star.drawing.PolyPolygonShape">
       <g id="id9">
        <rect class="BoundingBox" stroke="none" fill="none" x="10057" y="10319" width="931" height="1437"/>
        <path fill="rgb(246,142,118)" stroke="none" d="M 10987,10319 L 10987,11189 10058,11755 10058,10319 10987,10319 Z M 10987,10319 L 10987,10319 Z"/>
       </g>
      </g>
      <g class="com.sun.star.drawing.ClosedBezierShape">
       <g id="id10">
        <rect class="BoundingBox" stroke="none" fill="none" x="7724" y="5157" width="5589" height="2865"/>
        <path fill="rgb(246,142,118)" stroke="none" d="M 12127,7529 C 11992,7657 11917,7835 11919,8021 11920,7835 11845,7658 11713,7529 11583,7396 11406,7321 11220,7321 10837,7326 10527,7637 10522,8021 10524,7835 10448,7657 10314,7529 10185,7396 10008,7321 9822,7321 9438,7326 9128,7637 9124,8021 9126,7835 9050,7657 8916,7529 8787,7396 8609,7321 8424,7321 8238,7320 8060,7395 7932,7529 7801,7652 7724,7951 7724,7951 7724,6408 8976,5157 10519,5158 12062,5158 13312,6410 13312,7952 13297,7896 13278,7841 13256,7787 13221,7697 13170,7591 13103,7531 12974,7398 12797,7323 12612,7322 12428,7321 12253,7396 12127,7529 Z M 12127,7529 L 12127,7529 Z"/>
       </g>
      </g>
     </g>
    </g>
   </g>
  </g>
 </g>
</svg>
